;FLAVOR:Marlin
;TIME:1482
;Filament used: 0.331207m
;Layer height: 0.1
;MINX:48.934
;MINY:56.865
;MINZ:0.3
;MAXX:104.529
;MAXY:92.464
;MAXZ:4
;TARGET_MACHINE.NAME:Unknown
;Generated with Cura_SteamEngine 5.10.2
M104 S200
M105
M109 S200
G28 ;Home
G1 Z15.0 F6000 ;Move the platform down 15mm
;Prime the extruder
G92 E0
G1 F200 E3
G92 E0
M82 ;absolute extrusion mode
G92 E0
G92 E0
G1 F1500 E-6.5
;LAYER_COUNT:38
;LAYER:0
M107
G0 F3600 X52.526 Y58.829 Z0.3
;TYPE:SKIRT
G1 F1500 E0
G1 F1800 X54.347 Y57.717 E0.04014
G1 X56.399 Y57.027 E0.08086
G1 X57.544 Y56.902 E0.10252
G1 X94.301 Y56.865 E0.79394
G1 X96.543 Y57.064 E0.83628
G1 X98.765 Y57.844 E0.88058
G1 X100.659 Y59.009 E0.92241
G1 X102.371 Y60.721 E0.96795
G1 X103.604 Y62.727 E1.01224
G1 X104.337 Y64.879 E1.05501
G1 X104.529 Y67.084 E1.09664
G1 X104.472 Y82.764 E1.39159
G1 X104.289 Y84.296 E1.42062
G1 X103.551 Y86.412 E1.46277
G1 X102.262 Y88.48 E1.50861
G1 X100.529 Y90.213 E1.55471
G1 X98.443 Y91.503 E1.60085
G1 X96.184 Y92.271 E1.64573
G1 X93.919 Y92.464 E1.68849
G1 X58.631 Y92.407 E2.35228
G1 X57.099 Y92.224 E2.3813
G1 X54.983 Y91.486 E2.42345
G1 X52.915 Y90.197 E2.46929
G1 X51.184 Y88.466 E2.51534
G1 X49.892 Y86.375 E2.56157
G1 X49.121 Y84.114 E2.60651
G1 X48.934 Y81.948 E2.64741
G1 X49.023 Y65.085 E2.96461
G1 X49.238 Y63.722 E2.99057
G1 X49.972 Y62.012 E3.02557
G1 X50.867 Y60.457 E3.05932
G1 X52.526 Y58.829 E3.10304
G0 F3600 X52.775 Y59.146
G1 F1800 X54.517 Y58.082 E3.14144
G1 X56.484 Y57.42 E3.18048
G1 X57.587 Y57.3 E3.20135
G1 X94.301 Y57.265 E3.89196
G1 X96.457 Y57.457 E3.93268
G1 X98.589 Y58.206 E3.97519
G1 X100.41 Y59.326 E4.0154
G1 X102.054 Y60.97 E4.05913
G1 X103.24 Y62.899 E4.10173
G1 X103.943 Y64.965 E4.14278
G1 X104.129 Y67.083 E4.18277
G1 X104.075 Y82.716 E4.47684
G1 X103.897 Y84.203 E4.50501
G1 X103.187 Y86.24 E4.54559
G1 X101.948 Y88.228 E4.58965
G1 X100.277 Y89.899 E4.63411
G1 X98.274 Y91.138 E4.67841
G1 X96.102 Y91.876 E4.72156
G1 X93.92 Y92.064 E4.76276
G1 X58.679 Y92.01 E5.42566
G1 X57.192 Y91.832 E5.45383
G1 X55.155 Y91.122 E5.49441
G1 X53.167 Y89.883 E5.53847
G1 X51.498 Y88.214 E5.58287
G1 X50.257 Y86.206 E5.62727
G1 X49.516 Y84.031 E5.6705
G1 X49.333 Y81.914 E5.71047
G1 X49.418 Y65.147 E6.02587
G1 X49.625 Y63.836 E6.05083
G1 X50.34 Y62.17 E6.08494
G1 X51.185 Y60.706 E6.11673
G1 X52.775 Y59.146 E6.15863
G0 F3600 X53.024 Y59.463
G1 F1800 X54.688 Y58.446 E6.19532
G1 X56.568 Y57.814 E6.23263
G1 X57.63 Y57.698 E6.25272
G1 X94.301 Y57.665 E6.94252
G1 X96.371 Y57.851 E6.98162
G1 X98.413 Y58.568 E7.02233
G1 X100.161 Y59.643 E7.06093
G1 X101.739 Y61.221 E7.10291
G1 X102.875 Y63.069 E7.14371
G1 X103.55 Y65.051 E7.1831
G1 X103.729 Y67.082 E7.22145
G1 X103.678 Y82.669 E7.51465
G1 X103.506 Y84.11 E7.54195
G1 X102.823 Y86.068 E7.58096
G1 X101.634 Y87.976 E7.62325
G1 X100.025 Y89.585 E7.66605
G1 X98.105 Y90.773 E7.70852
G1 X96.016 Y91.482 E7.75002
G1 X93.921 Y91.664 E7.78957
G1 X58.726 Y91.613 E8.45161
G1 X57.285 Y91.441 E8.47891
G1 X55.327 Y90.758 E8.51792
G1 X53.419 Y89.569 E8.56021
G1 X51.812 Y87.962 E8.60296
G1 X50.622 Y86.037 E8.64553
G1 X49.911 Y83.948 E8.68704
G1 X49.732 Y81.88 E8.72608
G1 X49.813 Y65.209 E9.03968
G1 X50.012 Y63.95 E9.06365
G1 X50.708 Y62.328 E9.09685
G1 X51.504 Y60.954 E9.12672
G1 X53.024 Y59.463 E9.16677
G0 F3600 X53.27 Y59.781
G1 F1800 X54.858 Y58.811 E9.20178
G1 X56.653 Y58.207 E9.2374
G1 X57.673 Y58.096 E9.2567
G1 X94.301 Y58.065 E9.9457
G1 X96.286 Y58.245 E9.98319
G1 X98.236 Y58.929 E10.02206
G1 X99.912 Y59.96 E10.05907
G1 X101.422 Y61.47 E10.09924
G1 X102.511 Y63.241 E10.13835
G1 X103.157 Y65.138 E10.17605
G1 X103.329 Y67.081 E10.21274
G1 X103.281 Y82.621 E10.50506
G1 X103.114 Y84.017 E10.5315
G1 X102.459 Y85.896 E10.56893
G1 X101.32 Y87.724 E10.60945
G1 X99.775 Y89.269 E10.65055
G1 X97.933 Y90.409 E10.6913
G1 X95.931 Y91.088 E10.73106
G1 X93.922 Y91.264 E10.769
G1 X58.774 Y91.216 E11.43015
G1 X57.378 Y91.049 E11.4566
G1 X55.499 Y90.394 E11.49403
G1 X53.671 Y89.255 E11.53454
G1 X52.126 Y87.71 E11.57564
G1 X50.987 Y85.868 E11.61638
G1 X50.306 Y83.866 E11.65616
G1 X50.131 Y81.845 E11.69432
G1 X50.208 Y65.271 E12.00609
G1 X50.399 Y64.063 E12.02909
G1 X51.054 Y62.529 E12.06047
G1 X51.824 Y61.2 E12.08936
G1 X53.27 Y59.781 E12.12747
G0 F3600 X53.519 Y60.098
G1 F1800 X55.029 Y59.175 E12.16076
G1 X56.737 Y58.601 E12.19465
G1 X57.716 Y58.494 E12.21318
G1 X94.301 Y58.465 E12.90136
G1 X96.2 Y58.638 E12.93723
G1 X98.06 Y59.291 E12.97431
G1 X99.663 Y60.277 E13.00972
G1 X101.107 Y61.721 E13.04813
G1 X102.146 Y63.411 E13.08545
G1 X102.764 Y65.225 E13.12149
G1 X102.929 Y67.08 E13.15653
G1 X102.884 Y82.573 E13.44796
G1 X102.722 Y83.924 E13.47355
G1 X102.095 Y85.723 E13.50939
G1 X101.005 Y87.473 E13.54817
G1 X99.523 Y88.955 E13.5876
G1 X97.764 Y90.043 E13.6265
G1 X95.845 Y90.694 E13.66462
G1 X93.923 Y90.864 E13.70092
G1 X58.822 Y90.819 E14.36119
G1 X57.471 Y90.657 E14.38678
G1 X55.672 Y90.03 E14.42262
G1 X53.922 Y88.94 E14.4614
G1 X52.44 Y87.458 E14.50082
G1 X51.352 Y85.699 E14.53973
G1 X50.7 Y83.78 E14.57785
G1 X50.531 Y81.847 E14.61435
G1 X50.603 Y65.334 E14.92497
G1 X50.787 Y64.173 E14.94709
G1 X51.4 Y62.73 E14.97658
G1 X52.143 Y61.448 E15.00445
G1 X53.519 Y60.098 E15.04071
G0 F3600 X53.768 Y60.415
G1 F1800 X55.199 Y59.54 E15.07226
G1 X56.822 Y58.994 E15.10447
G1 X57.759 Y58.892 E15.1222
G1 X94.301 Y58.865 E15.80958
G1 X96.114 Y59.031 E15.84382
G1 X97.884 Y59.653 E15.87911
G1 X99.414 Y60.594 E15.9129
G1 X100.792 Y61.972 E15.94956
G1 X101.781 Y63.581 E15.98509
G1 X102.37 Y65.311 E16.01946
G1 X102.529 Y67.079 E16.05285
G1 X102.487 Y82.526 E16.34342
G1 X102.331 Y83.831 E16.36814
G1 X101.731 Y85.552 E16.40243
G1 X100.691 Y87.221 E16.43942
G1 X99.271 Y88.641 E16.47719
G1 X97.595 Y89.678 E16.51427
G1 X95.759 Y90.301 E16.55074
G1 X93.923 Y90.464 E16.58541
G1 X58.869 Y90.422 E17.2448
G1 X57.564 Y90.266 E17.26952
G1 X55.843 Y89.666 E17.3038
G1 X54.174 Y88.626 E17.34079
G1 X52.754 Y87.206 E17.37857
G1 X51.717 Y85.53 E17.41564
G1 X51.094 Y83.694 E17.45211
G1 X50.931 Y81.849 E17.48695
G1 X50.998 Y65.397 E17.79643
G1 X51.175 Y64.283 E17.81764
G1 X51.746 Y62.931 E17.84525
G1 X52.462 Y61.696 E17.8721
G1 X53.768 Y60.415 E17.90652
G0 F3600 X54.014 Y60.733
G1 F1800 X55.37 Y59.904 E17.93641
G1 X56.906 Y59.388 E17.96689
G1 X57.802 Y59.29 E17.98385
G1 X94.301 Y59.265 E18.67041
G1 X96.029 Y59.425 E18.70306
G1 X97.707 Y60.014 E18.73651
G1 X99.165 Y60.911 E18.76871
G1 X100.475 Y62.221 E18.80356
G1 X101.417 Y63.753 E18.83739
G1 X101.977 Y65.398 E18.87008
G1 X102.129 Y67.078 E18.90181
G1 X102.09 Y82.478 E19.19149
G1 X101.939 Y83.738 E19.21536
G1 X101.367 Y85.38 E19.24807
G1 X100.377 Y86.969 E19.28328
G1 X99.021 Y88.325 E19.31936
G1 X97.423 Y89.314 E19.35471
G1 X95.674 Y89.907 E19.38945
G1 X93.923 Y90.064 E19.42252
G1 X58.917 Y90.025 E20.081
G1 X57.657 Y89.874 E20.10487
G1 X56.015 Y89.302 E20.13758
G1 X54.426 Y88.312 E20.17279
G1 X53.07 Y86.956 E20.20887
G1 X52.081 Y85.358 E20.24422
G1 X51.488 Y83.609 E20.27896
G1 X51.331 Y81.851 E20.31216
G1 X51.393 Y65.46 E20.62048
G1 X51.562 Y64.395 E20.64077
G1 X52.092 Y63.132 E20.66653
G1 X52.782 Y61.942 E20.69241
G1 X54.014 Y60.733 E20.72488
G0 F3600 X54.263 Y61.05
G1 F1800 X55.54 Y60.269 E20.75303
G1 X56.991 Y59.781 E20.78183
G1 X57.845 Y59.688 E20.79799
G1 X94.301 Y59.665 E21.48375
G1 X95.943 Y59.818 E21.51477
G1 X97.531 Y60.376 E21.54643
G1 X98.916 Y61.228 E21.57702
G1 X100.16 Y62.472 E21.61011
G1 X101.052 Y63.923 E21.64215
G1 X101.583 Y65.484 E21.67316
G1 X101.729 Y67.077 E21.70325
G1 X101.693 Y82.43 E21.99205
G1 X101.547 Y83.647 E22.01511
G1 X101.004 Y85.207 E22.04618
G1 X100.063 Y86.717 E22.07965
G1 X98.771 Y88.009 E22.11402
G1 X97.251 Y88.95 E22.14765
G1 X95.589 Y89.513 E22.18066
G1 X93.923 Y89.664 E22.21212
G1 X58.965 Y89.628 E22.8697
G1 X57.748 Y89.482 E22.89276
G1 X56.188 Y88.939 E22.92383
G1 X54.678 Y87.998 E22.9573
G1 X53.386 Y86.706 E22.99167
G1 X52.445 Y85.186 E23.0253
G1 X51.882 Y83.524 E23.0583
G1 X51.731 Y81.852 E23.08988
G1 X51.788 Y65.523 E23.39704
G1 X51.95 Y64.505 E23.41643
G1 X52.438 Y63.333 E23.44031
G1 X53.101 Y62.19 E23.46517
G1 X54.263 Y61.05 E23.49579
G0 F3600 X54.509 Y61.368
G1 F1800 X55.71 Y60.634 E23.52227
G1 X57.076 Y60.174 E23.54938
G1 X57.888 Y60.086 E23.56474
G1 X94.301 Y60.065 E24.24969
G1 X95.858 Y60.212 E24.27911
G1 X97.354 Y60.737 E24.30893
G1 X98.667 Y61.545 E24.33793
G1 X99.845 Y62.723 E24.36927
G1 X100.687 Y64.093 E24.39952
G1 X101.19 Y65.57 E24.42887
G1 X101.329 Y67.076 E24.45732
G1 X101.296 Y82.383 E24.74525
G1 X101.156 Y83.554 E24.76744
G1 X100.64 Y85.034 E24.79692
G1 X99.748 Y86.466 E24.82865
G1 X98.521 Y87.693 E24.8613
G1 X97.08 Y88.585 E24.89317
G1 X95.503 Y89.12 E24.9245
G1 X93.923 Y89.264 E24.95434
G1 X59.012 Y89.231 E25.61104
G1 X57.841 Y89.091 E25.63322
G1 X56.361 Y88.575 E25.66271
G1 X54.929 Y87.683 E25.69444
G1 X53.702 Y86.456 E25.72708
G1 X52.81 Y85.015 E25.75896
G1 X52.275 Y83.438 E25.79029
G1 X52.131 Y81.853 E25.82022
G1 X52.183 Y65.586 E26.12622
G1 X52.337 Y64.616 E26.14469
G1 X52.784 Y63.534 E26.16671
G1 X53.421 Y62.436 E26.19059
G1 X54.509 Y61.368 E26.21927
G0 F3600 X54.755 Y61.686
G1 F1800 X55.881 Y60.998 E26.24409
G1 X57.16 Y60.568 E26.26947
G1 X57.931 Y60.484 E26.28406
G1 X94.301 Y60.465 E26.9682
G1 X95.772 Y60.605 E26.996
G1 X97.178 Y61.099 E27.02403
G1 X98.418 Y61.862 E27.05142
G1 X99.528 Y62.972 E27.08094
G1 X100.323 Y64.265 E27.1095
G1 X100.797 Y65.657 E27.13716
G1 X100.929 Y67.075 E27.16395
G1 X100.899 Y82.335 E27.451
G1 X100.764 Y83.461 E27.47233
G1 X100.277 Y84.859 E27.50017
G1 X99.431 Y86.217 E27.53027
G1 X98.271 Y87.377 E27.56113
G1 X96.908 Y88.221 E27.59129
G1 X95.418 Y88.726 E27.62088
G1 X93.923 Y88.864 E27.64912
G1 X59.06 Y88.834 E28.30491
G1 X57.934 Y88.699 E28.32625
G1 X56.536 Y88.212 E28.35409
G1 X55.178 Y87.366 E28.38419
G1 X54.018 Y86.206 E28.41505
G1 X53.174 Y84.843 E28.4452
G1 X52.669 Y83.353 E28.4748
G1 X52.531 Y81.854 E28.50311
G1 X52.578 Y65.649 E28.80794
G1 X52.724 Y64.727 E28.8255
G1 X53.154 Y63.687 E28.84667
G1 X53.74 Y62.683 E28.86854
G1 X54.755 Y61.686 E28.8953
G0 F3600 X55.004 Y62.003
G1 F1800 X56.051 Y61.363 E28.91838
G1 X57.245 Y60.961 E28.94208
G1 X57.974 Y60.882 E28.95587
G1 X94.301 Y60.865 E29.6392
G1 X95.687 Y60.999 E29.6654
G1 X97.001 Y61.46 E29.69159
G1 X98.169 Y62.179 E29.71739
G1 X99.213 Y63.223 E29.74516
G1 X99.958 Y64.435 E29.77193
G1 X100.404 Y65.744 E29.79794
G1 X100.529 Y67.074 E29.82307
G1 X100.502 Y82.288 E30.10925
G1 X100.373 Y83.368 E30.12971
G1 X99.913 Y84.688 E30.15601
G1 X99.117 Y85.965 E30.18431
G1 X98.021 Y87.061 E30.21347
G1 X96.737 Y87.856 E30.24187
G1 X95.332 Y88.333 E30.26978
G1 X93.923 Y88.464 E30.2964
G1 X59.107 Y88.437 E30.95131
G1 X58.027 Y88.308 E30.97177
G1 X56.707 Y87.848 E30.99807
G1 X55.43 Y87.052 E31.02637
G1 X54.334 Y85.956 E31.05553
G1 X53.539 Y84.672 E31.08394
G1 X53.062 Y83.267 E31.11185
G1 X52.931 Y81.855 E31.13852
G1 X52.973 Y65.712 E31.44218
G1 X53.112 Y64.836 E31.45886
G1 X53.5 Y63.888 E31.47813
G1 X54.058 Y62.931 E31.49897
G1 X55.004 Y62.003 E31.5239
G0 F3600 X55.25 Y62.321
G1 F1800 X56.222 Y61.727 E31.54533
G1 X57.329 Y61.355 E31.56729
G1 X58.017 Y61.28 E31.58031
G1 X94.301 Y61.265 E32.26283
G1 X95.601 Y61.392 E32.2874
G1 X96.825 Y61.822 E32.31181
G1 X97.92 Y62.496 E32.33599
G1 X98.896 Y63.472 E32.36196
G1 X99.594 Y64.607 E32.38702
G1 X100.011 Y65.831 E32.41135
G1 X100.129 Y67.073 E32.43481
G1 X100.105 Y82.24 E32.72011
G1 X99.981 Y83.275 E32.73972
G1 X99.549 Y84.516 E32.76444
G1 X98.803 Y85.713 E32.79097
G1 X97.771 Y86.745 E32.81842
G1 X96.565 Y87.492 E32.84511
G1 X95.247 Y87.939 E32.87129
G1 X93.923 Y88.064 E32.8963
G1 X59.155 Y88.04 E33.55031
G1 X58.12 Y87.916 E33.56992
G1 X56.879 Y87.484 E33.59464
G1 X55.682 Y86.738 E33.62117
G1 X54.65 Y85.706 E33.64862
G1 X53.903 Y84.5 E33.67531
G1 X53.456 Y83.182 E33.70148
G1 X53.331 Y81.856 E33.72654
G1 X53.368 Y65.775 E34.02903
G1 X53.5 Y64.945 E34.04484
G1 X53.846 Y64.09 E34.06219
G1 X54.379 Y63.176 E34.08209
G1 X55.25 Y62.321 E34.10505
G0 F3600 X55.496 Y62.639
G1 F1800 X56.393 Y62.091 E34.12482
G1 X57.412 Y61.749 E34.14504
G1 X58.061 Y61.678 E34.15732
G1 X94.301 Y61.665 E34.83902
G1 X95.516 Y61.786 E34.86199
G1 X96.648 Y62.183 E34.88455
G1 X97.671 Y62.813 E34.90715
G1 X98.581 Y63.723 E34.93136
G1 X99.229 Y64.777 E34.95463
G1 X99.618 Y65.918 E34.97731
G1 X99.729 Y67.072 E34.99912
G1 X99.708 Y82.193 E35.28355
G1 X99.59 Y83.182 E35.30229
G1 X99.185 Y84.343 E35.32542
G1 X98.488 Y85.462 E35.35021
G1 X97.521 Y86.429 E35.37594
G1 X96.393 Y87.128 E35.4009
G1 X95.162 Y87.545 E35.42535
G1 X93.923 Y87.664 E35.44876
G1 X59.202 Y87.643 E36.10188
G1 X58.213 Y87.525 E36.12062
G1 X57.052 Y87.12 E36.14375
G1 X55.933 Y86.423 E36.16855
G1 X54.966 Y85.456 E36.19427
G1 X54.267 Y84.328 E36.21923
G1 X53.85 Y83.097 E36.24368
G1 X53.731 Y81.857 E36.26711
G1 X53.763 Y65.838 E36.56844
G1 X53.888 Y65.052 E36.58341
G1 X54.192 Y64.292 E36.59881
G1 X54.7 Y63.421 E36.61778
G1 X55.496 Y62.639 E36.63877
G0 F3600 X55.744 Y62.956
G1 F1800 X56.561 Y62.457 E36.65677
G1 X57.497 Y62.142 E36.67535
G1 X58.104 Y62.076 E36.68684
G1 X94.301 Y62.065 E37.36772
G1 X95.43 Y62.179 E37.38907
G1 X96.472 Y62.545 E37.40984
G1 X97.422 Y63.13 E37.43083
G1 X98.266 Y63.974 E37.45328
G1 X98.864 Y64.947 E37.47476
G1 X99.225 Y66.005 E37.49579
G1 X99.329 Y67.072 E37.51596
G1 X99.311 Y82.145 E37.79949
G1 X99.198 Y83.089 E37.81737
G1 X98.822 Y84.168 E37.83887
G1 X98.171 Y85.213 E37.86203
G1 X97.271 Y86.113 E37.88597
G1 X96.222 Y86.763 E37.90918
G1 X95.076 Y87.152 E37.93195
G1 X93.923 Y87.264 E37.95374
G1 X59.25 Y87.246 E38.60596
G1 X58.306 Y87.133 E38.62384
G1 X57.227 Y86.757 E38.64533
G1 X56.182 Y86.106 E38.66849
G1 X55.282 Y85.206 E38.69243
G1 X54.632 Y84.157 E38.71565
G1 X54.243 Y83.011 E38.73841
G1 X54.131 Y81.858 E38.7602
G1 X54.158 Y65.901 E39.06036
G1 X54.276 Y65.159 E39.0745
G1 X54.538 Y64.494 E39.08794
G1 X55.021 Y63.666 E39.10597
G1 X55.744 Y62.956 E39.12503
G0 F3600 X55.992 Y63.273
G1 F1800 X56.729 Y62.823 E39.14128
G1 X57.582 Y62.536 E39.15821
G1 X58.148 Y62.474 E39.16892
G1 X94.301 Y62.465 E39.84898
G1 X95.345 Y62.573 E39.86872
G1 X96.295 Y62.906 E39.88765
G1 X97.173 Y63.447 E39.90705
G1 X97.949 Y64.223 E39.9277
G1 X98.5 Y65.119 E39.94748
G1 X98.832 Y66.092 E39.96682
G1 X98.929 Y67.072 E39.98535
G1 X98.914 Y82.097 E40.26798
G1 X98.806 Y82.998 E40.28504
G1 X98.459 Y83.995 E40.3049
G1 X97.857 Y84.961 E40.32631
G1 X97.021 Y85.797 E40.34855
G1 X96.05 Y86.399 E40.37004
G1 X94.991 Y86.758 E40.39108
G1 X93.923 Y86.864 E40.41127
G1 X59.298 Y86.849 E41.06258
G1 X58.397 Y86.741 E41.07965
G1 X57.4 Y86.394 E41.09951
G1 X56.434 Y85.792 E41.12092
G1 X55.598 Y84.956 E41.14316
G1 X54.996 Y83.985 E41.16465
G1 X54.637 Y82.926 E41.18568
G1 X54.531 Y81.859 E41.20585
G1 X54.553 Y65.964 E41.50485
G1 X54.664 Y65.265 E41.51816
G1 X54.91 Y64.641 E41.53078
G1 X55.339 Y63.914 E41.54666
G1 X55.992 Y63.273 E41.56387
G0 F3600 X56.241 Y63.59
G1 F1800 X56.9 Y63.187 E41.5784
G1 X57.665 Y62.93 E41.59358
G1 X58.192 Y62.872 E41.60355
G1 X94.301 Y62.865 E42.28278
G1 X95.259 Y62.966 E42.3009
G1 X96.119 Y63.268 E42.31805
G1 X96.924 Y63.764 E42.33583
G1 X97.634 Y64.474 E42.35472
G1 X98.135 Y65.289 E42.37272
G1 X98.439 Y66.179 E42.39041
G1 X98.529 Y67.072 E42.40729
G1 X98.517 Y82.05 E42.68904
G1 X98.415 Y82.905 E42.70523
G1 X98.095 Y83.822 E42.7235
G1 X97.542 Y84.71 E42.74318
G1 X96.771 Y85.481 E42.76369
G1 X95.879 Y86.034 E42.78343
G1 X94.904 Y86.365 E42.8028
G1 X93.923 Y86.464 E42.82135
G1 X59.345 Y86.452 E43.47178
G1 X58.49 Y86.35 E43.48798
G1 X57.573 Y86.03 E43.50625
G1 X56.685 Y85.477 E43.52592
G1 X55.914 Y84.706 E43.54643
G1 X55.361 Y83.814 E43.56618
G1 X55.03 Y82.839 E43.58554
G1 X54.931 Y81.859 E43.60407
G1 X54.948 Y66.027 E43.90188
G1 X55.052 Y65.371 E43.91437
G1 X55.282 Y64.788 E43.92616
G1 X55.655 Y64.165 E43.93982
G1 X56.241 Y63.59 E43.95527
G0 F3600 X56.49 Y63.907
G1 F1800 X57.07 Y63.552 E43.96806
G1 X57.75 Y63.323 E43.98155
G1 X58.235 Y63.27 E43.99073
G1 X94.301 Y63.265 E44.66915
G1 X95.173 Y63.359 E44.68565
G1 X95.943 Y63.63 E44.70101
G1 X96.675 Y64.081 E44.71718
G1 X97.317 Y64.723 E44.73426
G1 X97.771 Y65.461 E44.75056
G1 X98.046 Y66.266 E44.76656
G1 X98.129 Y67.072 E44.7818
G1 X98.12 Y82.002 E45.06264
