;START_OF_HEADER
;HEADER_VERSION:0.1
;FLAVOR:Griffin
;GENERATOR.NAME:Cura_SteamEngine
;GENERATOR.VERSION:5.10.2
;GENERATOR.BUILD_DATE:2025-07-28
;TARGET_MACHINE.NAME:Ultimaker S5
;EXTRUDER_TRAIN.0.INITIAL_TEMPERATURE:205
;EXTRUDER_TRAIN.0.MATERIAL.VOLUME_USED:2292
;EXTRUDER_TRAIN.0.MATERIAL.GUID:44a029e6-e31b-4c9e-a12f-9282e29a92ff
;EXTRUDER_TRAIN.0.NOZZLE.DIAMETER:0.4
;EXTRUDER_TRAIN.0.NOZZLE.NAME:AA 0.4
;BUILD_PLATE.INITIAL_TEMPERATURE:60
;BUILD_VOLUME.TEMPERATURE:28
;PRINT.TIME:663
;PRINT.GROUPS:1
;PRINT.SIZE.MIN.X:137.91
;PRINT.SIZE.MIN.Y:102.93
;PRINT.SIZE.MIN.Z:0.2
;PRINT.SIZE.MAX.X:330
;PRINT.SIZE.MAX.Y:237
;PRINT.SIZE.MAX.Z:20.001
;SLICE_UUID:ae156236-27a2-4efd-bbe2-2102fec833f9
;END_OF_HEADER
;Generated with Cura_SteamEngine 5.10.2
T0

M82 ;absolute extrusion mode
G92 E0
M190 S60
M104 S205
M109 S205
G280 S1
G0 Z20.001
G1 F2700 E-6.5
;LAYER_COUNT:20
G0 F9000 X330 Y237
;LAYER:0
M106 S255
M204 S1500
M205 X30 Y30
G1 F600 Z2.2
G0 F9000 X190.043 Y133.292 Z2.2
;TYPE:SKIRT
G1 F600 Z0.2
G1 F2700 E0
G1 F1800 X188.312 Y135.023 E0.0307
G1 X186.287 Y136.225 E0.06023
G1 X184.209 Y136.9 E0.08763
G1 X182.275 Y137.067 E0.11197
G1 X146.841 Y137.002 E0.55633
G1 X145.475 Y136.815 E0.57362
G1 X143.599 Y136.157 E0.59855
G1 X141.687 Y135.023 E0.62643
G1 X139.956 Y133.292 E0.65713
G1 X138.774 Y131.294 E0.68624
G1 X138.111 Y129.323 E0.71232
G1 X137.934 Y127.706 E0.73271
G1 X137.91 Y110.476 E0.94879
G1 X138.674 Y107.769 E0.98406
G1 X140.719 Y105.06 E1.02662
G1 X141.543 Y104.452 E1.03946
G1 X144.694 Y102.93 E1.08335
G1 X183.434 Y102.982 E1.56916
G1 X184.87 Y103.172 E1.58733
G1 X186.804 Y103.875 E1.61313
G1 X188.617 Y105.042 E1.64017
G1 X189.928 Y106.352 E1.66341
G1 X191.165 Y108.206 E1.69136
G1 X191.935 Y110.465 E1.72129
G1 X192.087 Y112.347 E1.74497
G1 X192.061 Y127.654 E1.93692
G1 X191.754 Y129.664 E1.96242
G1 X191.265 Y131.226 E1.98295
G1 X190.043 Y133.292 E2.01305
G0 F9000 X189.725 Y133.044
G1 F1800 X188.064 Y134.705 E2.04251
G1 X186.12 Y135.859 E2.07086
G1 X184.128 Y136.506 E2.09712
G1 X182.276 Y136.667 E2.12043
G1 X146.895 Y136.606 E2.56413
G1 X145.57 Y136.425 E2.5809
G1 X143.77 Y135.793 E2.60482
G1 X141.935 Y134.705 E2.63157
G1 X140.274 Y133.044 E2.66103
G1 X139.139 Y131.126 E2.68898
G1 X138.505 Y129.24 E2.71393
G1 X138.332 Y127.662 E2.73384
G1 X138.31 Y110.532 E2.94865
G1 X139.039 Y107.949 E2.98231
G1 X141.002 Y105.349 E3.02317
G1 X141.781 Y104.774 E3.03531
G1 X144.784 Y103.33 E3.07709
G1 X183.382 Y103.379 E3.56113
G1 X184.775 Y103.563 E3.57875
G1 X186.628 Y104.237 E3.60347
G1 X188.362 Y105.353 E3.62933
G1 X189.617 Y106.607 E3.65158
G1 X190.803 Y108.384 E3.67837
G1 X191.54 Y110.547 E3.70703
G1 X191.687 Y112.346 E3.72967
G1 X191.661 Y127.653 E3.92162
G1 X191.372 Y129.544 E3.94561
G1 X190.896 Y131.064 E3.96558
G1 X189.725 Y133.044 E3.99443
G0 F9000 X189.407 Y132.796
G1 F1800 X187.816 Y134.387 E4.02265
G1 X185.953 Y135.493 E4.04982
G1 X184.051 Y136.111 E4.0749
G1 X182.241 Y136.268 E4.09768
G1 X146.949 Y136.21 E4.54026
G1 X145.663 Y136.034 E4.55653
G1 X143.942 Y135.43 E4.5794
G1 X142.183 Y134.387 E4.60505
G1 X140.592 Y132.796 E4.63327
G1 X139.505 Y130.959 E4.66003
G1 X138.898 Y129.155 E4.6839
G1 X138.73 Y127.619 E4.70328
G1 X138.71 Y110.588 E4.91685
G1 X139.404 Y108.129 E4.9489
G1 X141.285 Y105.638 E4.98804
G1 X141.989 Y105.118 E4.99902
G1 X144.876 Y103.73 E5.03919
G1 X183.329 Y103.776 E5.5214
G1 X184.681 Y103.955 E5.5385
G1 X186.45 Y104.598 E5.56211
G1 X188.109 Y105.666 E5.58685
G1 X189.306 Y106.862 E5.60807
G1 X190.441 Y108.562 E5.6337
G1 X191.145 Y110.629 E5.66109
G1 X191.287 Y112.345 E5.68268
G1 X191.261 Y127.652 E5.87464
G1 X190.99 Y129.425 E5.89713
G1 X190.528 Y130.901 E5.91652
G1 X189.407 Y132.796 E5.94413
G0 F9000 X189.089 Y132.548
G1 F1800 X187.568 Y134.069 E5.97111
G1 X185.786 Y135.127 E5.9971
G1 X183.97 Y135.717 E6.02104
G1 X182.242 Y135.868 E6.04279
G1 X147.003 Y135.814 E6.4847
G1 X145.756 Y135.643 E6.50049
G1 X144.114 Y135.067 E6.52231
G1 X142.431 Y134.069 E6.54685
G1 X140.91 Y132.548 E6.57382
G1 X139.871 Y130.792 E6.59941
G1 X139.291 Y129.07 E6.6222
G1 X139.128 Y127.576 E6.64104
G1 X139.11 Y110.644 E6.85338
G1 X139.769 Y108.309 E6.8838
G1 X141.569 Y105.925 E6.92126
G1 X142.198 Y105.461 E6.93106
G1 X144.966 Y104.13 E6.96958
G1 X183.277 Y104.173 E7.45001
G1 X184.586 Y104.346 E7.46657
G1 X186.274 Y104.96 E7.4891
G1 X187.854 Y105.977 E7.51266
G1 X188.995 Y107.117 E7.53289
G1 X190.079 Y108.74 E7.55736
G1 X190.75 Y110.711 E7.58347
G1 X190.887 Y112.344 E7.60402
G1 X190.861 Y127.651 E7.79598
G1 X190.608 Y129.305 E7.81696
G1 X190.159 Y130.739 E7.83581
G1 X189.089 Y132.548 E7.86216
G0 F9000 X188.771 Y132.3
G1 F1800 X187.32 Y133.751 E7.8879
G1 X185.619 Y134.761 E7.9127
G1 X183.889 Y135.323 E7.93552
G1 X182.243 Y135.468 E7.95624
G1 X147.057 Y135.418 E8.39748
G1 X145.851 Y135.253 E8.41275
G1 X144.285 Y134.703 E8.43356
G1 X142.679 Y133.751 E8.45697
G1 X141.228 Y132.3 E8.48271
G1 X140.237 Y130.625 E8.50711
G1 X139.685 Y128.985 E8.52881
G1 X139.526 Y127.532 E8.54714
G1 X139.51 Y110.7 E8.75822
G1 X140.134 Y108.489 E8.78703
G1 X141.853 Y106.212 E8.82281
G1 X142.371 Y105.821 E8.83095
G1 X145.056 Y104.53 E8.86831
G1 X183.224 Y104.57 E9.34695
G1 X184.492 Y104.738 E9.36299
G1 X186.098 Y105.322 E9.38442
G1 X187.599 Y106.288 E9.40681
G1 X188.684 Y107.372 E9.42604
G1 X189.717 Y108.918 E9.44936
G1 X190.355 Y110.793 E9.47419
G1 X190.487 Y112.343 E9.4937
G1 X190.461 Y127.65 E9.68566
G1 X190.226 Y129.186 E9.70514
G1 X189.791 Y130.576 E9.72341
G1 X188.771 Y132.3 E9.74853
G0 F9000 X188.453 Y132.052
G1 F1800 X187.072 Y133.433 E9.77302
G1 X185.452 Y134.395 E9.79665
G1 X183.808 Y134.929 E9.81832
G1 X182.244 Y135.068 E9.83801
G1 X147.111 Y135.022 E10.27859
G1 X145.944 Y134.862 E10.29337
G1 X144.457 Y134.34 E10.31313
G1 X142.927 Y133.433 E10.33543
G1 X141.546 Y132.052 E10.35993
G1 X140.603 Y130.458 E10.38315
G1 X140.078 Y128.9 E10.40377
G1 X139.924 Y127.489 E10.42157
G1 X139.91 Y110.756 E10.63141
G1 X140.499 Y108.669 E10.6586
G1 X142.138 Y106.499 E10.6927
G1 X142.544 Y106.181 E10.69917
G1 X145.146 Y104.93 E10.73538
G1 X183.172 Y104.967 E11.21224
G1 X184.397 Y105.129 E11.22773
G1 X185.92 Y105.683 E11.24805
G1 X187.346 Y106.601 E11.26932
G1 X188.373 Y107.627 E11.28753
G1 X189.355 Y109.096 E11.30969
G1 X189.96 Y110.875 E11.33325
G1 X190.087 Y112.342 E11.35172
G1 X190.061 Y127.649 E11.54367
G1 X189.844 Y129.067 E11.56166
G1 X189.423 Y130.413 E11.57935
G1 X188.453 Y132.052 E11.60323
G0 F9000 X188.135 Y131.804
G1 F1800 X186.824 Y133.115 E11.62648
G1 X185.285 Y134.029 E11.64893
G1 X183.727 Y134.535 E11.66947
G1 X182.244 Y134.668 E11.68814
G1 X147.165 Y134.626 E12.12805
G1 X146.037 Y134.471 E12.14232
G1 X144.629 Y133.977 E12.16104
G1 X143.175 Y133.115 E12.18223
G1 X141.864 Y131.804 E12.20548
G1 X140.969 Y130.291 E12.22753
G1 X140.472 Y128.815 E12.24706
G1 X140.322 Y127.445 E12.26434
G1 X140.31 Y110.812 E12.47293
G1 X140.864 Y108.849 E12.4985
G1 X142.425 Y106.782 E12.53099
G1 X142.717 Y106.542 E12.53573
G1 X145.238 Y105.33 E12.5708
G1 X183.119 Y105.364 E13.04585
G1 X184.303 Y105.521 E13.06082
G1 X185.744 Y106.045 E13.08005
G1 X187.091 Y106.912 E13.10014
G1 X188.065 Y107.885 E13.11741
G1 X188.992 Y109.271 E13.13832
G1 X189.565 Y110.957 E13.16065
G1 X189.688 Y112.377 E13.17852
G1 X189.661 Y127.648 E13.37002
G1 X189.462 Y128.948 E13.38652
G1 X189.055 Y130.25 E13.40362
G1 X188.135 Y131.804 E13.42627
G0 F9000 X187.817 Y131.556
G1 F1800 X186.576 Y132.797 E13.44828
G1 X185.118 Y133.663 E13.46955
G1 X183.646 Y134.141 E13.48895
G1 X182.244 Y134.268 E13.50661
G1 X147.22 Y134.23 E13.94582
G1 X146.13 Y134.08 E13.95962
G1 X144.801 Y133.614 E13.97728
G1 X143.423 Y132.797 E13.99737
G1 X142.182 Y131.556 E14.01938
G1 X141.335 Y130.124 E14.04024
G1 X140.866 Y128.73 E14.05869
G1 X140.72 Y127.401 E14.07545
G1 X140.71 Y110.868 E14.28278
G1 X141.229 Y109.029 E14.30675
G1 X142.744 Y107.023 E14.33827
G1 X142.89 Y106.903 E14.34064
G1 X145.33 Y105.73 E14.37459
G1 X183.067 Y105.761 E14.84783
G1 X184.208 Y105.912 E14.86226
G1 X185.568 Y106.407 E14.88041
G1 X186.836 Y107.223 E14.89932
G1 X187.757 Y108.143 E14.91564
G1 X188.629 Y109.446 E14.93531
G1 X189.171 Y111.043 E14.95645
G1 X189.288 Y112.376 E14.97323
G1 X189.261 Y127.647 E15.16474
G1 X189.08 Y128.829 E15.17973
G1 X188.687 Y130.087 E15.19626
G1 X187.817 Y131.556 E15.21767
G0 F9000 X187.499 Y131.308
G1 F1800 X186.328 Y132.479 E15.23844
G1 X184.951 Y133.297 E15.25853
G1 X183.565 Y133.747 E15.2768
G1 X182.244 Y133.868 E15.29343
G1 X147.274 Y133.834 E15.73197
G1 X146.225 Y133.69 E15.74525
G1 X144.972 Y133.25 E15.7619
G1 X143.671 Y132.479 E15.78087
G1 X142.5 Y131.308 E15.80164
G1 X141.7 Y129.956 E15.82134
G1 X141.26 Y128.647 E15.83865
G1 X141.118 Y127.357 E15.85493
G1 X141.11 Y110.924 E16.061
G1 X141.594 Y109.209 E16.08335
G1 X143.063 Y107.264 E16.11392
G1 X145.422 Y106.13 E16.14674
G1 X183.015 Y106.158 E16.61817
G1 X184.113 Y106.303 E16.63206
G1 X185.39 Y106.768 E16.6491
G1 X186.583 Y107.536 E16.6669
G1 X187.447 Y108.399 E16.68221
G1 X188.267 Y109.624 E16.7007
G1 X188.777 Y111.128 E16.72061
G1 X188.888 Y112.375 E16.73631
G1 X188.861 Y127.646 E16.92781
G1 X188.698 Y128.71 E16.94131
G1 X188.319 Y129.924 E16.95726
G1 X187.499 Y131.308 E16.97744
G0 F9000 X187.181 Y131.06
G1 F1800 X186.08 Y132.161 E16.99696
G1 X184.784 Y132.931 E17.01587
G1 X183.484 Y133.353 E17.03301
G1 X182.244 Y133.468 E17.04862
G1 X147.329 Y133.438 E17.48647
G1 X146.319 Y133.299 E17.49925
G1 X145.143 Y132.886 E17.51489
G1 X143.919 Y132.161 E17.53273
G1 X142.818 Y131.06 E17.55225
G1 X142.065 Y129.788 E17.57079
G1 X141.654 Y128.564 E17.58698
G1 X141.516 Y127.313 E17.60276
G1 X141.51 Y110.98 E17.80758
G1 X141.959 Y109.389 E17.82832
G1 X143.324 Y107.582 E17.85671
G1 X145.512 Y106.53 E17.88716
G1 X182.963 Y106.555 E18.35681
G1 X184.018 Y106.694 E18.37015
G1 X185.214 Y107.13 E18.38612
G1 X186.328 Y107.847 E18.40273
G1 X187.139 Y108.657 E18.41711
G1 X187.904 Y109.8 E18.43435
G1 X188.383 Y111.213 E18.45306
G1 X188.488 Y112.374 E18.46768
G1 X188.461 Y127.645 E18.65919
G1 X188.316 Y128.591 E18.67119
G1 X187.951 Y129.761 E18.68656
G1 X187.181 Y131.06 E18.70549
G0 F9000 X186.863 Y130.812
G1 F1800 X185.832 Y131.843 E18.72378
G1 X184.616 Y132.566 E18.74152
G1 X183.404 Y132.959 E18.7575
G1 X182.244 Y133.068 E18.77211
G1 X147.384 Y133.042 E19.20927
G1 X146.412 Y132.908 E19.22157
G1 X145.315 Y132.523 E19.23615
G1 X144.167 Y131.843 E19.25288
G1 X143.136 Y130.812 E19.27117
G1 X142.43 Y129.62 E19.28854
G1 X142.048 Y128.481 E19.30361
G1 X141.914 Y127.269 E19.3189
G1 X141.91 Y111.036 E19.52247
G1 X142.324 Y109.569 E19.54158
G1 X143.584 Y107.901 E19.56779
G1 X145.604 Y106.93 E19.5959
G1 X182.963 Y106.955 E20.0644
G1 X183.919 Y107.084 E20.07649
G1 X185.038 Y107.492 E20.09143
G1 X186.073 Y108.158 E20.10686
G1 X186.831 Y108.915 E20.1203
G1 X187.541 Y109.976 E20.13631
G1 X187.989 Y111.298 E20.15381
G1 X188.088 Y112.373 E20.16735
G1 X188.065 Y127.586 E20.35813
G1 X187.934 Y128.472 E20.36936
G1 X187.583 Y129.598 E20.38415
G1 X186.863 Y130.812 E20.40185
G0 F9000 X186.545 Y130.564
G1 F1800 X185.584 Y131.525 E20.41889
G1 X184.452 Y132.198 E20.43541
G1 X183.32 Y132.565 E20.45033
G1 X182.244 Y132.668 E20.46389
G1 X147.439 Y132.646 E20.90035
G1 X146.505 Y132.517 E20.91218
G1 X145.487 Y132.16 E20.92571
G1 X144.415 Y131.525 E20.94133
G1 X143.454 Y130.564 E20.95837
G1 X142.795 Y129.452 E20.97458
G1 X142.442 Y128.398 E20.98852
G1 X142.312 Y127.225 E21.00332
G1 X142.31 Y111.092 E21.20564
G1 X142.689 Y109.749 E21.22314
G1 X143.845 Y108.219 E21.24718
G1 X145.694 Y107.33 E21.27291
G1 X182.909 Y107.351 E21.7396
G1 X183.82 Y107.474 E21.75113
G1 X184.86 Y107.853 E21.76501
G1 X185.82 Y108.471 E21.77933
G1 X186.521 Y109.171 E21.79175
G1 X187.179 Y110.154 E21.80659
G1 X187.595 Y111.383 E21.82286
G1 X187.688 Y112.372 E21.83531
G1 X187.669 Y127.53 E22.0254
G1 X187.552 Y128.353 E22.03583
G1 X187.215 Y129.435 E22.05004
G1 X186.545 Y130.564 E22.0665
G0 F9000 X186.227 Y130.316
G1 F1800 X185.336 Y131.207 E22.0823
G1 X184.288 Y131.83 E22.09759
G1 X183.236 Y132.171 E22.11146
G1 X182.244 Y132.268 E22.12396
G1 X147.494 Y132.25 E22.55974
G1 X146.598 Y132.126 E22.57108
G1 X145.659 Y131.797 E22.58356
G1 X144.663 Y131.207 E22.59807
G1 X143.772 Y130.316 E22.61388
G1 X143.16 Y129.284 E22.62892
G1 X142.834 Y128.311 E22.64179
G1 X142.712 Y127.225 E22.6555
G1 X142.71 Y111.148 E22.85711
G1 X143.054 Y109.929 E22.87299
G1 X144.105 Y108.538 E22.89485
G1 X145.786 Y107.73 E22.91824
G1 X182.855 Y107.747 E23.3831
G1 X183.721 Y107.864 E23.39406
G1 X184.684 Y108.215 E23.40691
G1 X185.565 Y108.782 E23.42005
G1 X186.213 Y109.429 E23.43154
G1 X186.816 Y110.33 E23.44513
G1 X187.201 Y111.468 E23.4602
G1 X187.288 Y112.372 E23.47159
G1 X187.273 Y127.476 E23.661
G1 X187.17 Y128.234 E23.67059
G1 X186.847 Y129.272 E23.68422
G1 X186.227 Y130.316 E23.69945
G0 F9000 X185.909 Y130.068
G1 F1800 X185.088 Y130.889 E23.71401
G1 X184.124 Y131.462 E23.72807
G1 X183.152 Y131.777 E23.74088
G1 X182.244 Y131.868 E23.75233
G1 X147.549 Y131.854 E24.18742
G1 X146.695 Y131.736 E24.19823
G1 X145.827 Y131.432 E24.20976
G1 X144.911 Y130.889 E24.22311
G1 X144.09 Y130.068 E24.23768
G1 X143.525 Y129.116 E24.25156
G1 X143.226 Y128.223 E24.26337
G1 X143.112 Y127.225 E24.27596
G1 X143.11 Y111.204 E24.47687
G1 X143.419 Y110.109 E24.49114
G1 X144.365 Y108.857 E24.51082
G1 X145.878 Y108.13 E24.53187
G1 X182.801 Y108.143 E24.9949
G1 X183.622 Y108.254 E25.00529
G1 X184.508 Y108.577 E25.01711
G1 X185.31 Y109.093 E25.02907
G1 X185.905 Y109.687 E25.03962
G1 X186.453 Y110.506 E25.05197
G1 X186.807 Y111.553 E25.06583
G1 X186.888 Y112.372 E25.07615
G1 X186.876 Y127.425 E25.26492
G1 X186.788 Y128.115 E25.27365
G1 X186.479 Y129.109 E25.2867
G1 X185.909 Y130.068 E25.30069
G0 F9000 X185.591 Y129.82
G1 F1800 X184.84 Y130.571 E25.31401
G1 X183.96 Y131.094 E25.32685
G1 X183.068 Y131.383 E25.33861
G1 X182.244 Y131.468 E25.34899
G1 X147.604 Y131.458 E25.78339
G1 X146.792 Y131.346 E25.79367
G1 X145.995 Y131.067 E25.80426
G1 X145.159 Y130.571 E25.81645
G1 X144.408 Y129.82 E25.82977
G1 X143.89 Y128.948 E25.84249
G1 X143.618 Y128.136 E25.85323
G1 X143.512 Y127.225 E25.86473
G1 X143.51 Y111.26 E26.06494
G1 X143.784 Y110.289 E26.07759
G1 X144.625 Y109.176 E26.09508
G1 X145.97 Y108.53 E26.11379
G1 X182.747 Y108.539 E26.57499
G1 X183.523 Y108.644 E26.58481
G1 X184.33 Y108.938 E26.59558
G1 X185.057 Y109.406 E26.60642
G1 X185.595 Y109.943 E26.61596
G1 X186.091 Y110.684 E26.62714
G1 X186.413 Y111.638 E26.63977
G1 X186.488 Y112.372 E26.64902
G1 X186.479 Y127.374 E26.83715
G1 X186.391 Y128.064 E26.84587
G1 X186.112 Y128.944 E26.85745
G1 X185.591 Y129.82 E26.87023
G0 F9000 X185.273 Y129.572
G1 F1800 X184.592 Y130.253 E26.88231
G1 X183.796 Y130.726 E26.89392
G1 X182.984 Y130.989 E26.90462
G1 X182.244 Y131.068 E26.91395
G1 X147.659 Y131.062 E27.34766
G1 X146.889 Y130.956 E27.35741
G1 X146.163 Y130.702 E27.36706
G1 X145.407 Y130.253 E27.37808
G1 X144.726 Y129.572 E27.39016
G1 X144.255 Y128.779 E27.40173
G1 X144.01 Y128.049 E27.41138
G1 X143.912 Y127.225 E27.42179
G1 X143.91 Y111.316 E27.62129
G1 X144.149 Y110.469 E27.63233
G1 X144.885 Y109.495 E27.64764
G1 X146.062 Y108.93 E27.66401
G1 X182.693 Y108.935 E28.12338
G1 X183.424 Y109.034 E28.13263
G1 X184.152 Y109.299 E28.14234
G1 X184.804 Y109.719 E28.15207
G1 X185.287 Y110.201 E28.16063
G1 X185.728 Y110.86 E28.17057
G1 X186.019 Y111.723 E28.18199
G1 X186.088 Y112.372 E28.19018
G1 X186.082 Y127.323 E28.37767
G1 X185.994 Y128.013 E28.38639
G1 X185.745 Y128.778 E28.39648
G1 X185.273 Y129.572 E28.40806
G0 F9000 X184.639 Y129.074
G1 F1800 X184.094 Y129.619 E28.41773
G1 X183.504 Y129.979 E28.4264
G1 X182.854 Y130.198 E28.435
G1 X182.244 Y130.268 E28.4427
G1 X147.755 Y130.268 E28.8752
G1 X147.145 Y130.198 E28.8829
G1 X146.495 Y129.979 E28.8915
G1 X145.905 Y129.619 E28.90017
G1 X145.36 Y129.074 E28.90984
G1 X145 Y128.484 E28.9185
G1 X144.781 Y127.833 E28.92712
G1 X144.712 Y127.225 E28.93479
G1 X144.71 Y111.372 E29.13359
G1 X144.879 Y110.83 E29.14071
G1 X145.405 Y110.133 E29.15166
G1 X146.246 Y109.73 E29.16336
G1 X182.644 Y109.732 E29.6198
G1 X183.165 Y109.791 E29.62638
G1 X183.731 Y109.98 E29.63386
G1 X184.246 Y110.293 E29.64142
